X:1
T:Title
%%score ( 1 2 ) ( 3 4 )
L:1/8
Q:1/4=103
M:6/8
K:A
V:1 treble nm="Grand Piano, Soprano"
V:2 treble 
V:3 bass nm="Choir Pad, Sing and Praising Forever"
V:4 bass 
V:1
 [CE]2 [CA] [CA]2 [DB] | [Ec]2 [Ec] [Ec]3 | [Ec]2 [Ec] cB[EA] | [Ec]3 [EB]3 | %4
w: By~William~Batchelder~Bradubry * * *||||
 [CE]2 [CA] [CA]2 [DB] | [Ec]2 [Ec] [Ec]3 | [Ec][DB][CA] [DB][CA][B,G] | [CA]3 [CA]3 | %8
w: ||||
 [Ec]2 [Ae] [Ae]2 [Ec] | [Ec]2 [EB] [EB]3 | [CA][CB][Cc] [Cc][CB][CA] | [Ec]3 [EB]3 | %12
w: ||||
 [Ec]2 [Ee] [Ee]2 [Ec] | [Ec]2 [EB] [EB]3 | [Ec][DB][CA] [DB][CA][B,G] | [CA]3 [CA]3 | %16
w: ||||
 [Ec][Ec][Ec] [Ec][Ec][Ec] | [Fd]3 [Fd]3 | [EB][EB][EB] [EB][EB][EB] | [Ec]3 [Ec]3 | %20
w: ||||
 [DF]2 [DG] BA[DF] | [CE]2 C [CE]3 | [Ec][DB][CA] [DB][CA][B,G] | [CA]3 [CA]3- | [CA]6 |] %25
w: |||||
V:2
 x6 | x6 | z3 .E3 | x6 | x6 | x6 | x6 | x6 | x6 | x6 | x6 | x6 | x6 | x6 | x6 | x6 | x6 | x6 | x6 | %19
 x6 | z3 .D3 | x6 | x6 | x6 | x6 |] %25
V:3
 [A,,A,]2 [A,,A,] [A,,A,]2 [A,,E,] | [A,,A,]2 A, A,3 | A,2 A, [A,,A,][B,,G,][C,A,] | %3
 [E,A,]3 [E,G,]3 | A,2 A, A,2 A, | A,2 A, A,3 | [E,A,][E,G,][E,A,] G,A,[E,B,] | [A,,A,]3 [A,,A,]3 | %8
 A,2 [A,C] [A,C]2 A, | [E,A,]2 [E,G,] [E,G,]3 | [F,A,][F,A,][F,A,] [F,A,][F,B,][F,C] | %11
 [E,A,]3 [E,G,]3 | A,2 [A,C] [A,C]2 [A,,A,] | [E,A,]2 [E,G,] [E,G,]3 | %14
 [E,A,][E,B,][E,C] [E,G,][E,A,][E,B,] | [A,,A,]3 [A,,A,]3 | A,A,A, A,A,A, | [D,A,]3 [D,A,]3 | %18
 [E,G,][E,G,][E,G,] [E,G,][E,G,][E,G,] | A,3 [A,,A,]3 | [D,A,]2 [D,G,] [D,F,]2 [D,A,] | %21
 [A,,A,]2 [A,,E,] [A,,A,]3 | [E,A,][E,B,][E,C] [E,G,][E,A,][E,B,] | [A,,A,]3 [A,,A,]3- | %24
 [A,,A,]6 |] %25
V:4
 x6 | x6 | x6 | x6 | x6 | x6 | z3 .E,3 | x6 | x6 | x6 | x6 | x6 | x6 | x6 | x6 | x6 | x6 | x6 | %18
 x6 | x6 | x6 | x6 | x6 | x6 | x6 |] %25

